X:242
T:Daffodils
T:Freda's Waltz
C:Dave Kerridge, c. 1996
C:Arrangement: Graham Beebee, 2004
L:1/4
M:3/4
R:Waltz
%%MIDI beat 100 95 80
S:Colin Hume's website,  colinhume.com  - chords can also be printed below the stave.
Q:1/4=120
%%MIDI ratio 3 1
K:G
P:A
V:1
%%MIDI program 68     Oboe
|: G/A/ B/c/ d/e/ | fg>a | gB>c | B/A/ G2 |\
c/d/ec | B/c/dB | A3- |1 A2 A :|2 A2d |
V:2
%%MIDI program 46     Orchestral Harp
%%MIDI gchord c
%%MIDI chordprog 42   Cello
%%MIDI chordvol 30
|: "G"BGB | "/"B2G | "Em"BGe | "G"d/c/Bd |\
"Am"ecA | "G"dB/A/G | "Am"c/d/ c/B/ A/G/ |1 "D"F/E/ D2 :|2 "D"F/E/ D>"D7"=F |
V:3 bass octave=-2
%%MIDI program   43   Contrabass
|: !mp! g3 | f3 | e3 | "_6;4"d3 | A3 | B3 | c3 |1 "_5;3"d3 :|2 "_5;3" d2 "_6;\043 5" B |
P:B
V:1
e2e | fga | gB>c | B/A/G2 |\
c/d/e c | B/c/dB | A3- | A2 d |
V:2
"C"EGc | "D7"ABc | "Em"BG2 | "/"GBE |\
"Am"E2 "Am6"F | "G"G2d | "A7"eAg | "D"f/g/ f/e/ d |
V:3
c3 | "_7"d3 | e3 | e3 |\
"_5;3"x2 "_6"x & A3 | "_6"B3 | "_6"^c3 | d2 "_6;\043 5"B |
V:1
e2e | fg>a | gB>c | B/A/G2 |\
c2c | BA>G | G3- | G3 |]
V:2
"C"cGF/E/ | "D7"DE>F | "Em"G2F | "/"G/F/ E/G/B |\
"Am"A/B/AG | "D7"F2F | "G"G/A/ B/A/ B/d/ | "/"g3 |]
V:3
c3 | d3 | e3 | e3 |\
A3 | "_7"d2d | g2d | G3 |]

